Newaita-dark/devices/32/network-vpn.svg

<svg height="32pt" viewBox="0 0 32 32" width="32pt" xmlns="http://www.w3.org/2000/svg" xmlns:xlink="http://www.w3.org/1999/xlink"><linearGradient id="a"><stop offset="0" stop-opacity=".313725"/><stop offset=".222222" stop-opacity=".27451"/><stop offset="1" stop-opacity="0"/></linearGradient><radialGradient id="b" cx="450.90894" cy="189.57936" gradientTransform="matrix(.00000017 -.0683658 -.140638 -.00000009 42.869347 59.315511)" gradientUnits="userSpaceOnUse" r="21.166656" xlink:href="#a"/><radialGradient id="c" cx="450.90894" cy="189.57936" gradientTransform="matrix(-.00000017 .0683658 .140638 .00000009 -11.116314 -2.916897)" gradientUnits="userSpaceOnUse" r="21.166656" xlink:href="#a"/><radialGradient id="d" cx="450.90894" cy="189.57936" gradientTransform="matrix(-.00000017 -.0683658 .140638 -.00000009 -11.116314 59.315511)" gradientUnits="userSpaceOnUse" r="21.166656" xlink:href="#a"/><radialGradient id="e" cx="450.90894" cy="189.57936" gradientTransform="matrix(.00000017 .0683658 -.140638 .00000009 42.869345 -2.916897)" gradientUnits="userSpaceOnUse" r="21.166656" xlink:href="#a"/><linearGradient id="f" gradientTransform="matrix(.0133601 0 0 .0546927 12.465385 15.428569)" gradientUnits="userSpaceOnUse" x1="255.32306" x2="255.32304" y1="233.5" y2="254.66666"><stop offset="0" stop-opacity=".27451"/><stop offset="1" stop-opacity="0"/></linearGradient><linearGradient id="g" gradientUnits="userSpaceOnUse" x1="15.876524" x2="15.876524" y1="28.033934" y2="2.89610412498"><stop offset="0" stop-color="#26c6da"/><stop offset="1" stop-color="#4dd0e1"/></linearGradient><linearGradient id="h" gradientUnits="userSpaceOnUse" x1="15.876524" x2="15.876524" y1="28.033934" y2="2.89610412498"><stop offset="0" stop-color="#bdbdbd"/><stop offset="1" stop-color="#e0e0e0"/></linearGradient><linearGradient id="i" gradientUnits="userSpaceOnUse" x1="15.87648" x2="15.87648" xlink:href="#a" y1="2.89610346856" y2="28.0338647916"/><path d="m16.539062 28.199219h2.644532v-1.15625h-2.644532zm0 0" fill="url(#b)"/><path d="m15.214844 28.199219h-2.644532v1.15625h2.644532zm0 0" fill="url(#c)"/><path d="m15.214844 28.199219h-2.644532v-1.15625h2.644532zm0 0" fill="url(#d)"/><path d="m16.539062 28.199219h2.644532v1.15625h-2.644532zm0 0" fill="url(#e)"/><path d="m15.214844 27.910156h1.324218v1.445313h-1.324218zm0 0" fill="url(#f)"/><path d="m15.875 2.894531c8.601562 0 11.910156 1.984375 11.910156 3.972657 0 9.921874-7.277344 21.167968-11.910156 21.167968-4.628906 0-11.90625-11.246094-11.90625-21.167968 0-1.988282 3.96875-3.972657 11.90625-3.972657zm0 0" fill="url(#g)"/><path d="m15.875 2.894531c-7.9375 0-11.90625 1.984375-11.90625 3.96875 0 9.925781 7.277344 21.171875 11.90625 21.171875 4.632812 0 11.910156-11.246094 11.910156-21.171875 0-1.984375-3.308594-3.96875-11.910156-3.96875zm0 1.324219c7.703125 0 10.664062 1.777344 10.664062 3.554688 0 8.886718-6.515624 18.953124-10.664062 18.953124-4.144531 0-10.660156-10.066406-10.660156-18.953124 0-1.777344 3.554687-3.554688 10.660156-3.554688zm0 0" fill="url(#h)"/><path d="m27.777344 6.714844c-.207032 9.8125-7.339844 20.730468-11.902344 20.730468-4.558594 0-11.6875-10.910156-11.902344-20.722656 0 .042969-.003906.082032-.003906.121094 0 9.921875 7.277344 21.167969 11.90625 21.167969 4.632812 0 11.910156-11.246094 11.910156-21.167969 0-.042969-.003906-.085938-.007812-.128906zm0 0" fill-opacity=".235294"/><path d="m15.875 2.894531c-7.9375 0-11.90625 1.984375-11.90625 3.96875 0 .089844 0 .175781.003906.261719.089844-1.960938 4.058594-3.898438 11.902344-3.898438 8.492188 0 11.824219 1.933594 11.90625 3.894532.003906-.085938.003906-.171875.003906-.257813 0-1.984375-3.308594-3.96875-11.910156-3.96875zm0 0" fill="#fff" fill-opacity=".392157"/><path d="m15.875 2.800781c-3.976562 0-6.960938.496094-8.960938 1.246094-1 .375-1.753906.816406-2.265624 1.292969-.507813.476562-.773438.996094-.773438 1.523437 0 4.984375 1.824219 10.289063 4.230469 14.355469 1.203125 2.03125 2.550781 3.753906 3.894531 4.972656s2.679688 1.9375 3.875 1.9375 2.535156-.71875 3.878906-1.9375 2.691406-2.941406 3.894532-4.972656c2.40625-4.066406 4.230468-9.371094 4.230468-14.355469 0-.519531-.222656-1.042969-.679687-1.519531-.457031-.480469-1.148438-.917969-2.109375-1.292969-1.921875-.753906-4.90625-1.25-9.214844-1.25zm0 .1875c4.292969 0 7.261719.5 9.144531 1.234375.945313.371094 1.613281.796875 2.046875 1.25.429688.453125.625.921875.625 1.390625 0 4.941407-1.816406 10.21875-4.207031 14.257813-1.195313 2.019531-2.53125 3.730468-3.855469 4.929687-1.324218 1.203125-2.632812 1.890625-3.753906 1.890625-1.117188 0-2.425781-.6875-3.75-1.890625-1.324219-1.199219-2.664062-2.910156-3.859375-4.929687-2.390625-4.039063-4.203125-9.316406-4.203125-14.257813 0-.464843.230469-.933593.714844-1.386719.484375-.453124 1.21875-.882812 2.203125-1.253906 1.96875-.738281 4.933593-1.234375 8.894531-1.234375zm0 1.136719c-3.558594 0-6.234375.445312-8.027344 1.117188-.898437.335937-1.574218.730468-2.03125 1.15625-.457031.429687-.695312.898437-.695312 1.375 0 4.464843 1.632812 9.214843 3.789062 12.855468 1.078125 1.820313 2.285156 3.363282 3.488282 4.457032 1.203124 1.089843 2.402343 1.734374 3.476562 1.734374s2.277344-.644531 3.480469-1.734374c1.203125-1.09375 2.410156-2.636719 3.488281-4.457032 2.15625-3.640625 3.789062-8.390625 3.789062-12.855468 0-.46875-.199218-.941407-.609374-1.371094-.410157-.429688-1.035157-.824219-1.894532-1.160156-1.71875-.671876-4.394531-1.117188-8.253906-1.117188zm0 .1875c3.84375 0 6.5.445312 8.1875 1.105469.839844.328125 1.441406.710937 1.824219 1.113281.386719.40625.558593.824219.558593 1.242188 0 4.417968-1.625 9.144531-3.761718 12.761718-1.070313 1.808594-2.269532 3.335938-3.453125 4.410156-1.1875 1.074219-2.355469 1.6875-3.355469 1.6875-.996094 0-2.167969-.613281-3.351562-1.6875-1.183594-1.074218-2.382813-2.601562-3.453126-4.410156-2.140624-3.617187-3.761718-8.34375-3.761718-12.761718 0-.414063.203125-.832032.636718-1.238282.429688-.402344 1.085938-.789062 1.96875-1.117187 1.757813-.660157 4.417969-1.105469 7.960938-1.105469zm0 0" fill="#212121"/><path d="m15.875 7.527344c-2.199219 0-3.96875 1.769531-3.96875 3.96875 0 1.734375 1.101562 3.203125 2.648438 3.746094v4.851562c0 .734375.5625 1.324219 1.261718 1.324219h.121094c.699219 0 1.261719-.589844 1.261719-1.324219v-4.851562c1.542969-.542969 2.644531-2.011719 2.644531-3.746094 0-2.199219-1.769531-3.96875-3.96875-3.96875zm0 0" fill="url(#i)"/><path d="m15.875 7.527344c-2.199219 0-3.96875 1.769531-3.96875 3.96875 0 .113281.003906.222656.015625.332031.164063-2.042969 1.867187-3.640625 3.953125-3.640625 2.089844 0 3.789062 1.597656 3.957031 3.640625.007813-.109375.011719-.21875.011719-.332031 0-2.199219-1.769531-3.96875-3.96875-3.96875zm0 0" fill-opacity=".235294"/><path d="m11.921875 11.722656c-.007813.105469-.015625.21875-.015625.328125 0 1.734375 1.101562 3.203125 2.648438 3.746094v-.664063c-1.445313-.507812-2.503907-1.824218-2.632813-3.410156zm7.910156 0c-.128906 1.585938-1.1875 2.902344-2.632812 3.410156v.664063c1.542969-.542969 2.644531-2.011719 2.644531-3.746094 0-.109375-.003906-.222656-.011719-.328125zm-5.277343 8.265625v.664063c0 .730468.5625 1.320312 1.261718 1.320312h.121094c.699219 0 1.261719-.589844 1.261719-1.320312v-.664063c0 .734375-.5625 1.324219-1.261719 1.324219h-.121094c-.699218 0-1.261718-.589844-1.261718-1.324219zm0 0" fill="#fff" fill-opacity=".392157"/><path d="m959.908345 455.153391c-132.979428 0-239.977086 106.997658-239.977086 239.977087 0 104.871876 66.607813 193.682294 160.14219 226.513804v293.357817c0 44.405209 34.0125 80.071094 76.291928 80.071094h7.322135c42.279428 0 76.291928-35.665885 76.291928-80.071094v-293.357817c93.298178-32.83151 159.905992-121.641928 159.905992-226.513804 0-132.979429-106.997658-239.977087-239.977087-239.977087zm0 0" fill="none" stroke="#212121" stroke-linecap="round" stroke-linejoin="round" stroke-width="11.338583" transform="scale(.016538)"/></svg>

<?xml version="1.0" encoding="UTF-8"?>
<svg xmlns="http://www.w3.org/2000/svg" xmlns:xlink="http://www.w3.org/1999/xlink" width="32pt" height="32pt" viewBox="0 0 32 32" version="1.1">
<defs>
<radialGradient id="radial0" gradientUnits="userSpaceOnUse" cx="450.90894" cy="189.57936" fx="450.90894" fy="189.57936" r="21.166656" gradientTransform="matrix(0.00000017417,-0.0683658,-0.140638,-0.0000000888462,42.869347,59.315511)">
<stop offset="0" style="stop-color:rgb(0%,0%,0%);stop-opacity:0.313725;"/>
<stop offset="0.222222" style="stop-color:rgb(0%,0%,0%);stop-opacity:0.27451;"/>
<stop offset="1" style="stop-color:rgb(0%,0%,0%);stop-opacity:0;"/>
</radialGradient>
<radialGradient id="radial1" gradientUnits="userSpaceOnUse" cx="450.90894" cy="189.57936" fx="450.90894" fy="189.57936" r="21.166656" gradientTransform="matrix(-0.00000017417,0.0683658,0.140638,0.0000000888462,-11.116314,-2.916897)">
<stop offset="0" style="stop-color:rgb(0%,0%,0%);stop-opacity:0.313725;"/>
<stop offset="0.222222" style="stop-color:rgb(0%,0%,0%);stop-opacity:0.27451;"/>
<stop offset="1" style="stop-color:rgb(0%,0%,0%);stop-opacity:0;"/>
</radialGradient>
<radialGradient id="radial2" gradientUnits="userSpaceOnUse" cx="450.90894" cy="189.57936" fx="450.90894" fy="189.57936" r="21.166656" gradientTransform="matrix(-0.00000017417,-0.0683658,0.140638,-0.0000000888462,-11.116314,59.315511)">
<stop offset="0" style="stop-color:rgb(0%,0%,0%);stop-opacity:0.313725;"/>
<stop offset="0.222222" style="stop-color:rgb(0%,0%,0%);stop-opacity:0.27451;"/>
<stop offset="1" style="stop-color:rgb(0%,0%,0%);stop-opacity:0;"/>
</radialGradient>
<radialGradient id="radial3" gradientUnits="userSpaceOnUse" cx="450.90894" cy="189.57936" fx="450.90894" fy="189.57936" r="21.166656" gradientTransform="matrix(0.00000017417,0.0683658,-0.140638,0.0000000888462,42.869345,-2.916897)">
<stop offset="0" style="stop-color:rgb(0%,0%,0%);stop-opacity:0.313725;"/>
<stop offset="0.222222" style="stop-color:rgb(0%,0%,0%);stop-opacity:0.27451;"/>
<stop offset="1" style="stop-color:rgb(0%,0%,0%);stop-opacity:0;"/>
</radialGradient>
<linearGradient id="linear0" gradientUnits="userSpaceOnUse" x1="255.32306" y1="233.5" x2="255.32304" y2="254.66666" gradientTransform="matrix(0.0133601,0,0,0.0546927,12.465385,15.428569)">
<stop offset="0" style="stop-color:rgb(0%,0%,0%);stop-opacity:0.27451;"/>
<stop offset="1" style="stop-color:rgb(0%,0%,0%);stop-opacity:0;"/>
</linearGradient>
<linearGradient id="linear1" gradientUnits="userSpaceOnUse" x1="254" y1="233.5" x2="254" y2="-168.66667" gradientTransform="matrix(0.062506,0,0,0.062506,0,13.438783)">
<stop offset="0" style="stop-color:rgb(14.901961%,77.647059%,85.490196%);stop-opacity:1;"/>
<stop offset="1" style="stop-color:rgb(30.196078%,81.568627%,88.235294%);stop-opacity:1;"/>
</linearGradient>
<linearGradient id="linear2" gradientUnits="userSpaceOnUse" x1="254" y1="233.5" x2="254" y2="-168.66667" gradientTransform="matrix(0.062506,0,0,0.062506,0,13.438783)">
<stop offset="0" style="stop-color:rgb(74.117647%,74.117647%,74.117647%);stop-opacity:1;"/>
<stop offset="1" style="stop-color:rgb(87.843137%,87.843137%,87.843137%);stop-opacity:1;"/>
</linearGradient>
<linearGradient id="linear3" gradientUnits="userSpaceOnUse" x1="960" y1="175.11812" x2="960" y2="1695.1182" gradientTransform="matrix(0.016538,0,0,0.016538,0,0)">
<stop offset="0" style="stop-color:rgb(0%,0%,0%);stop-opacity:0.313725;"/>
<stop offset="0.222222" style="stop-color:rgb(0%,0%,0%);stop-opacity:0.27451;"/>
<stop offset="1" style="stop-color:rgb(0%,0%,0%);stop-opacity:0;"/>
</linearGradient>
</defs>
<g id="surface1">
<path style=" stroke:none;fill-rule:nonzero;fill:url(#radial0);" d="M 16.539062 28.199219 L 19.183594 28.199219 L 19.183594 27.042969 L 16.539062 27.042969 Z M 16.539062 28.199219 "/>
<path style=" stroke:none;fill-rule:nonzero;fill:url(#radial1);" d="M 15.214844 28.199219 L 12.570312 28.199219 L 12.570312 29.355469 L 15.214844 29.355469 Z M 15.214844 28.199219 "/>
<path style=" stroke:none;fill-rule:nonzero;fill:url(#radial2);" d="M 15.214844 28.199219 L 12.570312 28.199219 L 12.570312 27.042969 L 15.214844 27.042969 Z M 15.214844 28.199219 "/>
<path style=" stroke:none;fill-rule:nonzero;fill:url(#radial3);" d="M 16.539062 28.199219 L 19.183594 28.199219 L 19.183594 29.355469 L 16.539062 29.355469 Z M 16.539062 28.199219 "/>
<path style=" stroke:none;fill-rule:nonzero;fill:url(#linear0);" d="M 15.214844 27.910156 L 16.539062 27.910156 L 16.539062 29.355469 L 15.214844 29.355469 Z M 15.214844 27.910156 "/>
<path style=" stroke:none;fill-rule:nonzero;fill:url(#linear1);" d="M 15.875 2.894531 C 24.476562 2.894531 27.785156 4.878906 27.785156 6.867188 C 27.785156 16.789062 20.507812 28.035156 15.875 28.035156 C 11.246094 28.035156 3.96875 16.789062 3.96875 6.867188 C 3.96875 4.878906 7.9375 2.894531 15.875 2.894531 Z M 15.875 2.894531 "/>
<path style=" stroke:none;fill-rule:nonzero;fill:url(#linear2);" d="M 15.875 2.894531 C 7.9375 2.894531 3.96875 4.878906 3.96875 6.863281 C 3.96875 16.789062 11.246094 28.035156 15.875 28.035156 C 20.507812 28.035156 27.785156 16.789062 27.785156 6.863281 C 27.785156 4.878906 24.476562 2.894531 15.875 2.894531 Z M 15.875 4.21875 C 23.578125 4.21875 26.539062 5.996094 26.539062 7.773438 C 26.539062 16.660156 20.023438 26.726562 15.875 26.726562 C 11.730469 26.726562 5.214844 16.660156 5.214844 7.773438 C 5.214844 5.996094 8.769531 4.21875 15.875 4.21875 Z M 15.875 4.21875 "/>
<path style=" stroke:none;fill-rule:nonzero;fill:rgb(0%,0%,0%);fill-opacity:0.235294;" d="M 27.777344 6.714844 C 27.570312 16.527344 20.4375 27.445312 15.875 27.445312 C 11.316406 27.445312 4.1875 16.535156 3.972656 6.722656 C 3.972656 6.765625 3.96875 6.804688 3.96875 6.84375 C 3.96875 16.765625 11.246094 28.011719 15.875 28.011719 C 20.507812 28.011719 27.785156 16.765625 27.785156 6.84375 C 27.785156 6.800781 27.78125 6.757812 27.777344 6.714844 Z M 27.777344 6.714844 "/>
<path style=" stroke:none;fill-rule:nonzero;fill:rgb(100%,100%,100%);fill-opacity:0.392157;" d="M 15.875 2.894531 C 7.9375 2.894531 3.96875 4.878906 3.96875 6.863281 C 3.96875 6.953125 3.96875 7.039062 3.972656 7.125 C 4.0625 5.164062 8.03125 3.226562 15.875 3.226562 C 24.367188 3.226562 27.699219 5.160156 27.78125 7.121094 C 27.785156 7.035156 27.785156 6.949219 27.785156 6.863281 C 27.785156 4.878906 24.476562 2.894531 15.875 2.894531 Z M 15.875 2.894531 "/>
<path style=" stroke:none;fill-rule:nonzero;fill:rgb(12.941176%,12.941176%,12.941176%);fill-opacity:1;" d="M 15.875 2.800781 C 11.898438 2.800781 8.914062 3.296875 6.914062 4.046875 C 5.914062 4.421875 5.160156 4.863281 4.648438 5.339844 C 4.140625 5.816406 3.875 6.335938 3.875 6.863281 C 3.875 11.847656 5.699219 17.152344 8.105469 21.21875 C 9.308594 23.25 10.65625 24.972656 12 26.191406 C 13.34375 27.410156 14.679688 28.128906 15.875 28.128906 C 17.070312 28.128906 18.410156 27.410156 19.753906 26.191406 C 21.097656 24.972656 22.445312 23.25 23.648438 21.21875 C 26.054688 17.152344 27.878906 11.847656 27.878906 6.863281 C 27.878906 6.34375 27.65625 5.820312 27.199219 5.34375 C 26.742188 4.863281 26.050781 4.425781 25.089844 4.050781 C 23.167969 3.296875 20.183594 2.800781 15.875 2.800781 Z M 15.875 2.988281 C 20.167969 2.988281 23.136719 3.488281 25.019531 4.222656 C 25.964844 4.59375 26.632812 5.019531 27.066406 5.472656 C 27.496094 5.925781 27.691406 6.394531 27.691406 6.863281 C 27.691406 11.804688 25.875 17.082031 23.484375 21.121094 C 22.289062 23.140625 20.953125 24.851562 19.628906 26.050781 C 18.304688 27.253906 16.996094 27.941406 15.875 27.941406 C 14.757812 27.941406 13.449219 27.253906 12.125 26.050781 C 10.800781 24.851562 9.460938 23.140625 8.265625 21.121094 C 5.875 17.082031 4.0625 11.804688 4.0625 6.863281 C 4.0625 6.398438 4.292969 5.929688 4.777344 5.476562 C 5.261719 5.023438 5.996094 4.59375 6.980469 4.222656 C 8.949219 3.484375 11.914062 2.988281 15.875 2.988281 Z M 15.875 4.125 C 12.316406 4.125 9.640625 4.570312 7.847656 5.242188 C 6.949219 5.578125 6.273438 5.972656 5.816406 6.398438 C 5.359375 6.828125 5.121094 7.296875 5.121094 7.773438 C 5.121094 12.238281 6.753906 16.988281 8.910156 20.628906 C 9.988281 22.449219 11.195312 23.992188 12.398438 25.085938 C 13.601562 26.175781 14.800781 26.820312 15.875 26.820312 C 16.949219 26.820312 18.152344 26.175781 19.355469 25.085938 C 20.558594 23.992188 21.765625 22.449219 22.84375 20.628906 C 25 16.988281 26.632812 12.238281 26.632812 7.773438 C 26.632812 7.304688 26.433594 6.832031 26.023438 6.402344 C 25.613281 5.972656 24.988281 5.578125 24.128906 5.242188 C 22.410156 4.570312 19.734375 4.125 15.875 4.125 Z M 15.875 4.3125 C 19.71875 4.3125 22.375 4.757812 24.0625 5.417969 C 24.902344 5.746094 25.503906 6.128906 25.886719 6.53125 C 26.273438 6.9375 26.445312 7.355469 26.445312 7.773438 C 26.445312 12.191406 24.820312 16.917969 22.683594 20.535156 C 21.613281 22.34375 20.414062 23.871094 19.230469 24.945312 C 18.042969 26.019531 16.875 26.632812 15.875 26.632812 C 14.878906 26.632812 13.707031 26.019531 12.523438 24.945312 C 11.339844 23.871094 10.140625 22.34375 9.070312 20.535156 C 6.929688 16.917969 5.308594 12.191406 5.308594 7.773438 C 5.308594 7.359375 5.511719 6.941406 5.945312 6.535156 C 6.375 6.132812 7.03125 5.746094 7.914062 5.417969 C 9.671875 4.757812 12.332031 4.3125 15.875 4.3125 Z M 15.875 4.3125 "/>
<path style=" stroke:none;fill-rule:nonzero;fill:url(#linear3);" d="M 15.875 7.527344 C 13.675781 7.527344 11.90625 9.296875 11.90625 11.496094 C 11.90625 13.230469 13.007812 14.699219 14.554688 15.242188 L 14.554688 20.09375 C 14.554688 20.828125 15.117188 21.417969 15.816406 21.417969 L 15.9375 21.417969 C 16.636719 21.417969 17.199219 20.828125 17.199219 20.09375 L 17.199219 15.242188 C 18.742188 14.699219 19.84375 13.230469 19.84375 11.496094 C 19.84375 9.296875 18.074219 7.527344 15.875 7.527344 Z M 15.875 7.527344 "/>
<path style=" stroke:none;fill-rule:nonzero;fill:rgb(0%,0%,0%);fill-opacity:0.235294;" d="M 15.875 7.527344 C 13.675781 7.527344 11.90625 9.296875 11.90625 11.496094 C 11.90625 11.609375 11.910156 11.71875 11.921875 11.828125 C 12.085938 9.785156 13.789062 8.1875 15.875 8.1875 C 17.964844 8.1875 19.664062 9.785156 19.832031 11.828125 C 19.839844 11.71875 19.84375 11.609375 19.84375 11.496094 C 19.84375 9.296875 18.074219 7.527344 15.875 7.527344 Z M 15.875 7.527344 "/>
<path style=" stroke:none;fill-rule:nonzero;fill:rgb(100%,100%,100%);fill-opacity:0.392157;" d="M 11.921875 11.722656 C 11.914062 11.828125 11.90625 11.941406 11.90625 12.050781 C 11.90625 13.785156 13.007812 15.253906 14.554688 15.796875 L 14.554688 15.132812 C 13.109375 14.625 12.050781 13.308594 11.921875 11.722656 Z M 19.832031 11.722656 C 19.703125 13.308594 18.644531 14.625 17.199219 15.132812 L 17.199219 15.796875 C 18.742188 15.253906 19.84375 13.785156 19.84375 12.050781 C 19.84375 11.941406 19.839844 11.828125 19.832031 11.722656 Z M 14.554688 19.988281 L 14.554688 20.652344 C 14.554688 21.382812 15.117188 21.972656 15.816406 21.972656 L 15.9375 21.972656 C 16.636719 21.972656 17.199219 21.382812 17.199219 20.652344 L 17.199219 19.988281 C 17.199219 20.722656 16.636719 21.3125 15.9375 21.3125 L 15.816406 21.3125 C 15.117188 21.3125 14.554688 20.722656 14.554688 19.988281 Z M 14.554688 19.988281 "/>
<path style="fill:none;stroke-width:11.338583;stroke-linecap:round;stroke-linejoin:round;stroke:rgb(12.941176%,12.941176%,12.941176%);stroke-opacity:1;stroke-miterlimit:4;" d="M 959.908345 455.153391 C 826.928917 455.153391 719.931259 562.151049 719.931259 695.130478 C 719.931259 800.002354 786.539072 888.812772 880.073449 921.644282 L 880.073449 1215.002099 C 880.073449 1259.407308 914.085949 1295.073193 956.365377 1295.073193 L 963.687512 1295.073193 C 1005.96694 1295.073193 1039.97944 1259.407308 1039.97944 1215.002099 L 1039.97944 921.644282 C 1133.277618 888.812772 1199.885432 800.002354 1199.885432 695.130478 C 1199.885432 562.151049 1092.887774 455.153391 959.908345 455.153391 Z M 959.908345 455.153391 " transform="matrix(0.016538,0,0,0.016538,0,0)"/>
</g>
</svg>
